svg/u1f978.svg

<svg viewBox="0 0 128 128" xmlns="http://www.w3.org/2000/svg">
  <g>
    <radialGradient id="face_1_" cx="64" cy="-1730.6666" gradientTransform="matrix(1 0 0 -1 0 -1666.6666)" gradientUnits="userSpaceOnUse" r="58.8348">
      <stop offset="0.5" stop-color="#FDE030"/>
      <stop offset="0.9188" stop-color="#F7C02B"/>
      <stop offset="1" stop-color="#F4A223"/>
    </radialGradient>
    <path id="face_2_" d="M64,6.25c-31.1,0-59.9,20.7-59.9,57.7c0,37.3,28.8,57.8,59.9,57.8 s59.9-20,59.9-57.8C123.8,26.45,95,6.25,64,6.25z" fill="url(#face_1_)"/>
    <path d="M52.59,54.25" fill="none" stroke="#FFFFFF" stroke-miterlimit="10" stroke-width="0.9183"/>
    <path d="M22.35,54.25" fill="none" stroke="#FFFFFF" stroke-miterlimit="10" stroke-width="0.9183"/>
    <circle cx="34.56" cy="51.99" fill="#4FC3F7" r="22.96"/>
    <circle cx="93.39" cy="51.99" fill="#4FC3F7" r="22.96"/>
    <g>
      <g>
        <rect fill="#E1F5FE" height="38.44" transform="matrix(0.7501 -0.6614 0.6614 0.7501 -22.1729 37.0771)" width="3.59" x="36.17" y="28.65"/>
        <polygon fill="#E1F5FE" points="21.66,36.63 15.42,42.45 40.84,71.29 47.08,65.46 "/>
      </g>
      <g>
        <rect fill="#E1F5FE" height="38.44" transform="matrix(0.7501 -0.6614 0.6614 0.7501 -7.0385 77.1248)" width="3.59" x="96.73" y="28.65"/>
        <polygon fill="#E1F5FE" points="82.21,36.63 75.97,42.45 101.39,71.29 107.64,65.46 "/>
      </g>
    </g>
    <radialGradient id="SVGID_1_" cx="63.9723" cy="88.4087" gradientTransform="matrix(1 0 0 0.4617 0 47.5867)" gradientUnits="userSpaceOnUse" r="33.8219">
      <stop offset="0.0323" stop-color="#000000"/>
      <stop offset="1" stop-color="#424242"/>
    </radialGradient>
    <path d="M96.68,86.83c0.33-2.58-0.58-5.39-2.1-7.43c-0.2-0.27-0.63-0.14-0.64,0.19 c-0.07,1.71-0.68,5.16-4.37,6.44c-6.97,2.42-10.42-9.38-20.51-8.43c-2.19,0.21-3.86,1.18-5.07,2.62c-0.01-0.01-0.02-0.02-0.02-0.02 c-0.01,0.01-0.02,0.02-0.02,0.02c-1.21-1.44-2.88-2.42-5.07-2.62c-10.1-0.95-13.55,10.85-20.51,8.43c-3.69-1.28-4.3-4.73-4.37-6.44 c-0.01-0.33-0.44-0.46-0.64-0.19c-1.52,2.04-2.44,4.85-2.1,7.43c0.65,5,5.47,6.48,5.47,6.48c-1.34,1.26-2.63,1.59-4.18,1.47 c-0.5-0.04-0.82,0.56-0.51,0.95c3.63,4.68,10.3,6.15,15.17,3.1c-0.29,0.94-0.75,1.82-1.34,2.56c-0.24,0.31-0.13,0.77,0.24,0.92 c6.22,2.51,12.68,1.36,17.87-3.68c5.18,5.04,11.65,6.19,17.87,3.68c0.36-0.15,0.48-0.61,0.24-0.92c-0.59-0.74-1.05-1.62-1.34-2.56 c4.86,3.05,11.54,1.58,15.17-3.1c0.31-0.4-0.01-0.99-0.51-0.95c-1.56,0.12-2.84-0.21-4.18-1.47 C91.21,93.31,96.04,91.83,96.68,86.83z" fill="url(#SVGID_1_)"/>
    <g>
      <g>
        <radialGradient id="SVGID_2_" cx="36.0776" cy="33.3191" gradientTransform="matrix(1 6.261508e-03 -4.252246e-03 0.6791 1.6669 10.585)" gradientUnits="userSpaceOnUse" r="22.067">
          <stop offset="0.0323" stop-color="#000000"/>
          <stop offset="0.9664" stop-color="#424242"/>
        </radialGradient>
        <path d="M27.46,19.97c2.16,1.26,3.25,3.82,3.25,3.82s-3.09-2.29-8.14,1.07 c-2.7,1.79-2.8,3.18-6.01,4.34c-0.36,0.13-0.47,0.61-0.18,0.87c1.76,1.56,3.74,2.87,5.95,3.68c3.7,1.36,7.47-0.63,11.29-0.75 c5.12-0.17,11.75,1.28,16.3,3.86c1.29-3.68,1.23-7.81-0.16-11.45c-1.26-3.29-3.59-6.15-6.54-8.07c-0.38-0.25-0.87,0.06-0.81,0.51 l0.8,5.42c-2.3-3.49-5.91-5.59-10.12-5.45c-1.72,0.06-3.95,0.39-5.62,1.23C27.11,19.24,27.11,19.76,27.46,19.97z" fill="url(#SVGID_2_)"/>
      </g>
      <radialGradient id="SVGID_3_" cx="58.82" cy="37.6176" gradientTransform="matrix(-1 6.261508e-03 3.251007e-03 0.5192 149.7971 13.0701)" gradientUnits="userSpaceOnUse" r="20.4487">
        <stop offset="0.0323" stop-color="#000000"/>
        <stop offset="1" stop-color="#424242"/>
      </radialGradient>
      <path d="M100.54,19.97c-2.16,1.26-3.25,3.82-3.25,3.82s3.09-2.29,8.14,1.07 c2.7,1.79,2.8,3.18,6.01,4.34c0.36,0.13,0.47,0.61,0.18,0.87c-1.76,1.56-3.74,2.87-5.95,3.68c-3.7,1.36-7.47-0.63-11.29-0.75 c-5.12-0.17-11.75,1.28-16.3,3.86c-1.29-3.68-1.23-7.81,0.16-11.45c1.26-3.29,3.59-6.15,6.54-8.07c0.38-0.25,0.87,0.06,0.81,0.51 l-0.8,5.42c2.3-3.49,5.91-5.59,10.12-5.45c1.72,0.06,3.95,0.39,5.62,1.23C100.89,19.24,100.89,19.76,100.54,19.97z" fill="url(#SVGID_3_)"/>
    </g>
    <g>
      <path d="M34.56,34.37c9.71,0,17.62,7.9,17.62,17.62s-7.9,17.62-17.62,17.62s-17.62-7.9-17.62-17.62 S24.84,34.37,34.56,34.37 M34.56,29.03c-12.68,0-22.96,10.28-22.96,22.96s10.28,22.96,22.96,22.96s22.96-10.28,22.96-22.96 S47.24,29.03,34.56,29.03L34.56,29.03z" fill="#212121"/>
      <path d="M93.39,34.37c9.71,0,17.62,7.9,17.62,17.62s-7.9,17.62-17.62,17.62s-17.62-7.9-17.62-17.62 S83.68,34.37,93.39,34.37 M93.39,29.03c-12.68,0-22.96,10.28-22.96,22.96s10.28,22.96,22.96,22.96s22.96-10.28,22.96-22.96 S106.07,29.03,93.39,29.03L93.39,29.03z" fill="#212121"/>
      <g>
        <linearGradient id="SVGID_4_" gradientUnits="userSpaceOnUse" x1="113.6633" x2="123.8348" y1="52.1947" y2="52.1947">
          <stop offset="0.4463" stop-color="#212121"/>
          <stop offset="0.7484" stop-color="#323232"/>
          <stop offset="0.9664" stop-color="#424242"/>
        </linearGradient>
        <path d="M115.17,59.44c1.02-2.91,5.68-4.38,7.92-4.93c0.71-0.17,1.22-0.81,1.22-1.54v-3.15 c0-0.85-0.66-1.54-1.51-1.58c-2.26-0.11-6.39-0.68-7.5-3.32C113.73,41.22,113.82,63.31,115.17,59.44z" fill="url(#SVGID_4_)"/>
      </g>
      <path d="M72.39,42.8c-0.01,0-0.34,1.31-2.17,1.31c-1.79,0-2.63-1.48-6.22-1.48s-4.43,1.48-6.22,1.48 c-1.83,0-2.17-1.3-2.17-1.31c-0.56-0.34-0.25,6.07-0.25,6.07c0.19,0.63,1.26,6.87,1.85,6.95c0,0,2.45-4.31,6.79-4.36c0,0,0,0,0,0 s0,0,0,0c4.33,0.05,6.79,4.36,6.79,4.36c0.59-0.08,1.66-6.32,1.85-6.95C72.64,48.87,72.94,42.46,72.39,42.8z" fill="#212121"/>
      <g>
        <linearGradient id="SVGID_5_" gradientTransform="matrix(-1 0 0 1 -2.7925 0)" gradientUnits="userSpaceOnUse" x1="-17.1292" x2="-6.9577" y1="52.1947" y2="52.1947">
          <stop offset="0.4463" stop-color="#212121"/>
          <stop offset="0.7484" stop-color="#323232"/>
          <stop offset="0.9664" stop-color="#424242"/>
        </linearGradient>
        <path d="M12.83,59.44c-1.02-2.91-5.68-4.38-7.92-4.93c-0.71-0.17-1.22-0.81-1.22-1.54v-3.15 c0-0.85,0.66-1.54,1.51-1.58c2.26-0.11,6.39-0.68,7.5-3.32C14.27,41.22,14.18,63.31,12.83,59.44z" fill="url(#SVGID_5_)"/>
      </g>
    </g>
    <g>
      <linearGradient id="SVGID_6_" gradientUnits="userSpaceOnUse" x1="64" x2="64" y1="20.8333" y2="56.8888">
        <stop offset="0.5" stop-color="#FDE030"/>
        <stop offset="1" stop-color="#F7C02B"/>
      </linearGradient>
      <path d="M72.57,61.58c-2.32-7.75-3.55-12.34-8.55-12.36c-0.01,0-0.02,0-0.03,0 c-0.01,0-0.02,0-0.03,0c-4.99,0.01-6.22,4.61-8.55,12.36c-2.8,9.32-12.15,16.01-7.48,22.32c1.68,2.26,4.01,2.22,5.43,2.58 c1.4,0.36,4.18,6.84,10.6,6.84c0.01,0,0.02,0,0.03,0s0.02,0,0.03,0c6.42,0,9.2-6.47,10.6-6.84c1.42-0.37,3.75-0.32,5.43-2.58 C84.72,77.58,75.37,70.9,72.57,61.58z" fill="url(#SVGID_6_)"/>
      <radialGradient id="SVGID_7_" cx="58.3417" cy="82.8501" gradientTransform="matrix(0.9622 0.2722 -0.3237 1.1443 29.0193 -27.8346)" gradientUnits="userSpaceOnUse" r="11.5074">
        <stop offset="1.982868e-04" stop-color="#B36E00"/>
        <stop offset="0.7126" stop-color="#C77B00" stop-opacity="0.2874"/>
        <stop offset="1" stop-color="#D18100" stop-opacity="0"/>
      </radialGradient>
      <path d="M57.25,68.5c1.75-3.71,2.21-10.29,2.21-10.29s-1.63,1.81-4.95,6.62 c-0.67,0.98-1.98,3.08-2.75,4.37c-3.06,5.17-7.09,10.27-3.81,14.69c1.68,2.26,4.01,2.22,5.43,2.58c0.43,0.11,0.99,0.79,1.73,1.68 l0,0c0,0-2.19-3.91-1.73-7.91S55.5,72.21,57.25,68.5z" fill="url(#SVGID_7_)"/>
      <radialGradient id="SVGID_8_" cx="69.8381" cy="82.8501" gradientTransform="matrix(-0.9622 0.2722 0.3237 1.1443 110.0701 -30.9638)" gradientUnits="userSpaceOnUse" r="11.5074">
        <stop offset="1.982868e-04" stop-color="#B36E00"/>
        <stop offset="0.7126" stop-color="#C77B00" stop-opacity="0.2874"/>
        <stop offset="1" stop-color="#D18100" stop-opacity="0"/>
      </radialGradient>
      <path d="M70.78,68.5c-1.75-3.71-2.21-10.29-2.21-10.29s1.63,1.81,4.95,6.62 c0.67,0.98,1.98,3.08,2.75,4.37c3.06,5.17,7.09,10.27,3.81,14.69c-1.68,2.26-4.01,2.22-5.43,2.58c-0.43,0.11-0.99,0.79-1.73,1.68 l0,0c0,0,2.19-3.91,1.73-7.91S72.53,72.21,70.78,68.5z" fill="url(#SVGID_8_)"/>
    </g>
  </g>
</svg>

<svg viewBox="0 0 128 128" xmlns="http://www.w3.org/2000/svg">
  <defs>
    <radialGradient id="face_1_" cx="64" cy="-64" gradientTransform="matrix(1 0 0 -1 0 0)" gradientUnits="userSpaceOnUse" r="58.8348">
      <stop offset="0.5" stop-color="#FDE030"/>
      <stop offset="0.9188" stop-color="#F7C02B"/>
      <stop offset="1" stop-color="#F4A223"/>
    </radialGradient>
    <radialGradient id="SVGID_1_" cx="63.9723" cy="191.477143" gradientTransform="matrix(1 0 0 0.4617 0 0)" gradientUnits="userSpaceOnUse" r="33.8219">
      <stop offset="0.0323" stop-color="#000000"/>
      <stop offset="1" stop-color="#424242"/>
    </radialGradient>
    <radialGradient id="SVGID_3_" cx="-90.889391" cy="64.596619" gradientTransform="matrix(-1 0.006262 0.003251 0.5192 0 0)" gradientUnits="userSpaceOnUse" r="20.4487">
      <stop offset="0.0323" stop-color="#000000"/>
      <stop offset="1" stop-color="#424242"/>
    </radialGradient>
    <linearGradient id="SVGID_6_" gradientUnits="userSpaceOnUse" x1="64" x2="64" y1="20.8333" y2="56.8888">
      <stop offset="0.5" stop-color="#FDE030"/>
      <stop offset="1" stop-color="#F7C02B"/>
    </linearGradient>
    <radialGradient id="SVGID_7_" cx="78.689504" cy="53.685307" gradientTransform="matrix(0.9622 0.2722 -0.3237 1.1443 0 0)" gradientUnits="userSpaceOnUse" r="11.5074">
      <stop offset="1.982868e-04" stop-color="#B36E00"/>
      <stop offset="0.7126" stop-color="#C77B00" stop-opacity="0.2874"/>
      <stop offset="1" stop-color="#D18100" stop-opacity="0"/>
    </radialGradient>
    <radialGradient id="SVGID_8_" cx="-44.508654" cy="82.991135" gradientTransform="matrix(-0.9622 0.2722 0.3237 1.1443 0 0)" gradientUnits="userSpaceOnUse" r="11.5074">
      <stop offset="1.982868e-04" stop-color="#B36E00"/>
      <stop offset="0.7126" stop-color="#C77B00" stop-opacity="0.2874"/>
      <stop offset="1" stop-color="#D18100" stop-opacity="0"/>
    </radialGradient>
    <radialGradient id="SVGID_2_" cx="37.810711" cy="48.889926" gradientTransform="matrix(1 0.006262 -0.004252 0.6791 0 0)" gradientUnits="userSpaceOnUse" r="22.067">
      <stop offset="0.0323" stop-color="#000000"/>
      <stop offset="0.9664" stop-color="#424242"/>
    </radialGradient>
    <linearGradient id="SVGID_4_" gradientUnits="userSpaceOnUse" x1="113.6633" x2="123.8348" y1="52.1947" y2="52.1947">
      <stop offset="0.4463" stop-color="#212121"/>
      <stop offset="0.7484" stop-color="#323232"/>
      <stop offset="0.9664" stop-color="#424242"/>
    </linearGradient>
    <linearGradient id="SVGID_5_" gradientTransform="matrix(-1 0 0 1 0 0)" gradientUnits="userSpaceOnUse" x1="-14.3367" x2="-4.1652" y1="52.1947" y2="52.1947">
      <stop offset="0.4463" stop-color="#212121"/>
      <stop offset="0.7484" stop-color="#323232"/>
      <stop offset="0.9664" stop-color="#424242"/>
    </linearGradient>
  </defs>
  <path id="face_2_" d="M64,6.25 C32.9,6.25 4.1,26.95 4.1,63.95 C4.1,101.25 32.9,121.75 64,121.75 C95.1,121.75 123.9,101.75 123.9,63.95 C123.8,26.45 95,6.25 64,6.25 Z" fill="url(#face_1_)"/>
  <path d="M57.52,51.99 A22.96 22.96 0 1 1 11.6,51.99 A22.96 22.96 0 1 1 57.52,51.99 Z" fill="#4FC3F7"/>
  <path d="M116.35,51.99 A22.96 22.96 0 1 1 70.43,51.99 A22.96 22.96 0 1 1 116.35,51.99 Z" fill="#4FC3F7"/>
  <path d="M23.907,34.645 L26.6,32.27 L52.024,61.104 L49.332,63.478 L23.907,34.645 Z" fill="#E1F5FE"/>
  <path d="M21.66,36.63 L15.42,42.45 L40.84,71.29 L47.08,65.46 Z" fill="#E1F5FE"/>
  <path d="M84.468,34.638 L87.161,32.264 L112.585,61.097 L109.892,63.472 L84.468,34.638 Z" fill="#E1F5FE"/>
  <path d="M82.21,36.63 L75.97,42.45 L101.39,71.29 L107.64,65.46 Z" fill="#E1F5FE"/>
  <path d="M96.68,86.83 C97.01,84.25 96.1,81.44 94.58,79.4 C94.38,79.13 93.95,79.26 93.94,79.59 C93.87,81.3 93.26,84.75 89.57,86.03 C82.6,88.45 79.15,76.65 69.06,77.6 C66.87,77.81 65.2,78.78 63.99,80.22 C63.98,80.21 63.97,80.2 63.97,80.2 C63.96,80.21 63.95,80.22 63.95,80.22 C62.74,78.78 61.07,77.8 58.88,77.6 C48.78,76.65 45.33,88.45 38.37,86.03 C34.68,84.75 34.07,81.3 34,79.59 C33.99,79.26 33.56,79.13 33.36,79.4 C31.84,81.44 30.92,84.25 31.26,86.83 C31.91,91.83 36.73,93.31 36.73,93.31 C35.39,94.57 34.1,94.9 32.55,94.78 C32.05,94.74 31.73,95.34 32.04,95.73 C35.67,100.41 42.34,101.88 47.21,98.83 C46.92,99.77 46.46,100.65 45.87,101.39 C45.63,101.7 45.74,102.16 46.11,102.31 C52.33,104.82 58.79,103.67 63.98,98.63 C69.16,103.67 75.63,104.82 81.85,102.31 C82.21,102.16 82.33,101.7 82.09,101.39 C81.5,100.65 81.04,99.77 80.75,98.83 C85.61,101.88 92.29,100.41 95.92,95.73 C96.23,95.33 95.91,94.74 95.41,94.78 C93.85,94.9 92.57,94.57 91.23,93.31 C91.21,93.31 96.04,91.83 96.68,86.83 Z" fill="url(#SVGID_1_)"/>
  <path d="M27.46,19.97 C29.62,21.23 30.71,23.79 30.71,23.79 C30.71,23.79 27.62,21.5 22.57,24.86 C19.87,26.65 19.77,28.04 16.56,29.2 C16.2,29.33 16.09,29.81 16.38,30.07 C18.14,31.63 20.12,32.94 22.33,33.75 C26.03,35.11 29.8,33.12 33.62,33 C38.74,32.83 45.37,34.28 49.92,36.86 C51.21,33.18 51.15,29.05 49.76,25.41 C48.5,22.12 46.17,19.26 43.22,17.34 C42.84,17.09 42.35,17.4 42.41,17.85 L43.21,23.27 C40.91,19.78 37.3,17.68 33.09,17.82 C31.37,17.88 29.14,18.21 27.47,19.05 C27.11,19.24 27.11,19.76 27.46,19.97 Z" fill="url(#SVGID_2_)"/>
  <path d="M100.54,19.97 C98.38,21.23 97.29,23.79 97.29,23.79 C97.29,23.79 100.38,21.5 105.43,24.86 C108.13,26.65 108.23,28.04 111.44,29.2 C111.8,29.33 111.91,29.81 111.62,30.07 C109.86,31.63 107.88,32.94 105.67,33.75 C101.97,35.11 98.2,33.12 94.38,33 C89.26,32.83 82.63,34.28 78.08,36.86 C76.79,33.18 76.85,29.05 78.24,25.41 C79.5,22.12 81.83,19.26 84.78,17.34 C85.16,17.09 85.65,17.4 85.59,17.85 L84.79,23.27 C87.09,19.78 90.7,17.68 94.91,17.82 C96.63,17.88 98.86,18.21 100.53,19.05 C100.89,19.24 100.89,19.76 100.54,19.97 Z" fill="url(#SVGID_3_)"/>
  <path d="M34.56,34.37 C44.27,34.37 52.18,42.27 52.18,51.99 C52.18,61.71 44.28,69.61 34.56,69.61 C24.84,69.61 16.94,61.71 16.94,51.99 C16.94,42.27 24.84,34.37 34.56,34.37 M34.56,29.03 C21.88,29.03 11.6,39.31 11.6,51.99 C11.6,64.67 21.88,74.95 34.56,74.95 C47.24,74.95 57.52,64.67 57.52,51.99 C57.52,39.31 47.24,29.03 34.56,29.03 L34.56,29.03 Z" fill="#212121"/>
  <path d="M93.39,34.37 C103.1,34.37 111.01,42.27 111.01,51.99 C111.01,61.71 103.11,69.61 93.39,69.61 C83.67,69.61 75.77,61.71 75.77,51.99 C75.77,42.27 83.68,34.37 93.39,34.37 M93.39,29.03 C80.71,29.03 70.43,39.31 70.43,51.99 C70.43,64.67 80.71,74.95 93.39,74.95 C106.07,74.95 116.35,64.67 116.35,51.99 C116.35,39.31 106.07,29.03 93.39,29.03 L93.39,29.03 Z" fill="#212121"/>
  <path d="M115.17,59.44 C116.19,56.53 120.85,55.06 123.09,54.51 C123.8,54.34 124.31,53.7 124.31,52.97 L124.31,49.82 C124.31,48.97 123.65,48.28 122.8,48.24 C120.54,48.13 116.41,47.56 115.3,44.92 C113.73,41.22 113.82,63.31 115.17,59.44 Z" fill="url(#SVGID_4_)"/>
  <path d="M72.39,42.8 C72.38,42.8 72.05,44.11 70.22,44.11 C68.43,44.11 67.59,42.63 64,42.63 C60.41,42.63 59.57,44.11 57.78,44.11 C55.95,44.11 55.61,42.81 55.61,42.8 C55.05,42.46 55.36,48.87 55.36,48.87 C55.55,49.5 56.62,55.74 57.21,55.82 C57.21,55.82 59.66,51.51 64,51.46 C64,51.46 64,51.46 64,51.46 C64,51.46 64,51.46 64,51.46 C68.33,51.51 70.79,55.82 70.79,55.82 C71.38,55.74 72.45,49.5 72.64,48.87 C72.64,48.87 72.94,42.46 72.39,42.8 Z" fill="#212121"/>
  <path d="M12.83,59.44 C11.81,56.53 7.15,55.06 4.91,54.51 C4.2,54.34 3.69,53.7 3.69,52.97 L3.69,49.82 C3.69,48.97 4.35,48.28 5.2,48.24 C7.46,48.13 11.59,47.56 12.7,44.92 C14.27,41.22 14.18,63.31 12.83,59.44 Z" fill="url(#SVGID_5_)"/>
  <path d="M72.57,61.58 C70.25,53.83 69.02,49.24 64.02,49.22 C64.01,49.22 64,49.22 63.99,49.22 C63.98,49.22 63.97,49.22 63.96,49.22 C58.97,49.23 57.74,53.83 55.41,61.58 C52.61,70.9 43.26,77.59 47.93,83.9 C49.61,86.16 51.94,86.12 53.36,86.48 C54.76,86.84 57.54,93.32 63.96,93.32 C63.97,93.32 63.98,93.32 63.99,93.32 C64,93.32 64.01,93.32 64.02,93.32 C70.44,93.32 73.22,86.85 74.62,86.48 C76.04,86.11 78.37,86.16 80.05,83.9 C84.72,77.58 75.37,70.9 72.57,61.58 Z" fill="url(#SVGID_6_)"/>
  <path d="M57.25,68.5 C59,64.79 59.46,58.21 59.46,58.21 C59.46,58.21 57.83,60.02 54.51,64.83 C53.84,65.81 52.53,67.91 51.76,69.2 C48.7,74.37 44.67,79.47 47.95,83.89 C49.63,86.15 51.96,86.11 53.38,86.47 C53.81,86.58 54.37,87.26 55.11,88.15 L55.11,88.15 C55.11,88.15 52.92,84.24 53.38,80.24 C53.84,76.24 55.5,72.21 57.25,68.5 Z" fill="url(#SVGID_7_)"/>
  <path d="M70.78,68.5 C69.03,64.79 68.57,58.21 68.57,58.21 C68.57,58.21 70.2,60.02 73.52,64.83 C74.19,65.81 75.5,67.91 76.27,69.2 C79.33,74.37 83.36,79.47 80.08,83.89 C78.4,86.15 76.07,86.11 74.65,86.47 C74.22,86.58 73.66,87.26 72.92,88.15 L72.92,88.15 C72.92,88.15 75.11,84.24 74.65,80.24 C74.19,76.24 72.53,72.21 70.78,68.5 Z" fill="url(#SVGID_8_)"/>
</svg>
